X: 14451
T: Gambier Island
R: reel
M: 4/4
K: Dminor
dA e/d/e/c/ AD Dd|ec e/g/f/e/ dA Fd|
e/d/e/g/ fe dA FB|A/G/A/B/ A/G/E/G/ FD DA:|
|:fd D/E/F/G/ AF d>d|e/d/e/g/ f/e/d/c/ AF FA|
BG B/A/G/B/ AD D/E/F/G/|A/G/A/B/ A/G/E/G/ FD [D2d2]:|

